Newaita-dark/apps/22/com.github.harisvsulaiman.pushy.svg

<svg height="22pt" viewBox="0 0 22 22" width="22pt" xmlns="http://www.w3.org/2000/svg" xmlns:xlink="http://www.w3.org/1999/xlink"><linearGradient id="a"><stop offset="0" stop-opacity=".313725"/><stop offset=".222222" stop-opacity=".27451"/><stop offset="1" stop-opacity="0"/></linearGradient><radialGradient id="b" cx="450.90894" cy="189.57936" gradientTransform="matrix(.00000012 -.0537161 -.0966889 -.00000007 30.609667 43.721791)" gradientUnits="userSpaceOnUse" r="21.166656" xlink:href="#a"/><radialGradient id="c" cx="450.90894" cy="189.57936" gradientTransform="matrix(-.00000012 .0537161 .0966889 .00000007 -8.779458 -5.175143)" gradientUnits="userSpaceOnUse" r="21.166656" xlink:href="#a"/><radialGradient id="d" cx="450.90894" cy="189.57936" gradientTransform="matrix(-.00000012 -.0537161 .0966889 -.00000007 -8.779458 43.721791)" gradientUnits="userSpaceOnUse" r="21.166656" xlink:href="#a"/><radialGradient id="e" cx="450.90894" cy="189.57936" gradientTransform="matrix(.00000012 .0537161 -.0966889 .00000007 30.609666 -5.175144)" gradientUnits="userSpaceOnUse" r="21.166656" xlink:href="#a"/><linearGradient id="f" gradientTransform="matrix(.00918504 0 0 .0429729 8.569953 9.239164)" gradientUnits="userSpaceOnUse" x1="255.32306" x2="255.32304" y1="233.5" y2="254.66666"><stop offset="0" stop-opacity=".27451"/><stop offset="1" stop-opacity="0"/></linearGradient><linearGradient id="g"><stop offset="0" stop-color="#81c784"/><stop offset="1" stop-color="#66bb6a"/></linearGradient><linearGradient id="h" gradientUnits="userSpaceOnUse" x1="254" x2="254" xlink:href="#g" y1="-168.66667" y2="233.5"/><linearGradient id="i" gradientUnits="userSpaceOnUse" x1="10.9151" x2="10.9151" xlink:href="#g" y1="5.62944691707" y2="15.6349515"/><radialGradient id="j" cx="10.9151166" cy="10.63220071662" gradientUnits="userSpaceOnUse" r="5.00276148851"><stop offset="0" stop-color="#fff" stop-opacity=".196078"/><stop offset="1" stop-color="#cbcbcb" stop-opacity="0"/></radialGradient><path d="m12.507812 19.273438h1.816407v-.910157h-1.816407zm0 0" fill="url(#b)"/><path d="m9.324219 19.273438h-1.820313v.910156h1.820313zm0 0" fill="url(#c)"/><path d="m9.324219 19.273438h-1.820313v-.910157h1.820313zm0 0" fill="url(#d)"/><path d="m12.507812 19.273438h1.816407v.910156h-1.816407zm0 0" fill="url(#e)"/><path d="m9.324219 19.046875h3.183593v1.136719h-3.183593zm0 0" fill="url(#f)"/><path d="m253.975747-168.640791c111.080301 0 201.071707 89.991407 201.071707 201.071708s-89.991406 201.071708-201.071707 201.071708c-110.989402 0-201.071708-89.991407-201.071708-201.071708s90.082306-201.071708 201.071708-201.071708zm0 0" fill="url(#h)" stroke="#333" stroke-linecap="round" stroke-width="3" transform="matrix(.0429729 0 0 .0429729 0 9.239163)"/><path d="m10.914062 19.273438c-4.785156 0-8.640624-3.855469-8.640624-8.640626 0-.027343 0-.058593 0-.085937.046874 4.75 3.882812 8.558594 8.640624 8.558594 4.761719 0 8.597657-3.808594 8.640626-8.558594v.085937c0 4.785157-3.851563 8.640626-8.640626 8.640626zm0 0" fill-opacity=".196078"/><path d="m10.914062 1.992188c-4.785156 0-8.640624 3.851562-8.640624 8.640624v.085938c.046874-4.75 3.882812-8.558594 8.640624-8.558594 4.761719 0 8.597657 3.808594 8.640626 8.558594 0-.03125 0-.058594 0-.085938 0-4.789062-3.851563-8.640624-8.640626-8.640624zm0 0" fill="#fff" fill-opacity=".392157"/><path d="m10.914062 1.925781c-4.820312 0-8.703124 3.882813-8.703124 8.707031 0 4.820313 3.882812 8.703126 8.703124 8.703126 4.824219 0 8.707032-3.882813 8.707032-8.703126 0-4.824218-3.882813-8.707031-8.707032-8.707031zm0 .128907c4.753907 0 8.578126 3.824218 8.578126 8.578124 0 4.75-3.824219 8.574219-8.578126 8.574219-4.75 0-8.574218-3.824219-8.574218-8.574219 0-4.753906 3.824218-8.578124 8.574218-8.578124zm0 0" fill="#212121"/><path d="m10.914062 3.355469c4.019532 0 7.277344 3.257812 7.277344 7.277343 0 4.019532-3.257812 7.277344-7.277344 7.277344-4.019531 0-7.277343-3.257812-7.277343-7.277344 0-4.019531 3.257812-7.277343 7.277343-7.277343zm0 0" fill="#e0e0e0"/><path d="m10.914062 5.628906c2.765626 0 5.003907 2.242188 5.003907 5.003906 0 2.761719-2.238281 5.003907-5.003907 5.003907-2.761718 0-5-2.242188-5-5.003907 0-2.761718 2.238282-5.003906 5-5.003906zm0 0" fill="url(#i)"/><path d="m10.914062 5.6875c-2.457031 0-4.492187 1.757812-4.917968 4.089844.484375-2.257813 2.484375-3.941406 4.890625-3.941406 2.769531 0 5 2.230468 5 5.003906 0 .3125-.027344.617187-.082031.914062.074218-.34375.113281-.699218.113281-1.066406 0-2.769531-2.230469-5-5.003907-5zm0 0" fill="#fff" fill-opacity=".392157"/><path d="m5.917969 10.859375c-.003907.074219-.003907.152344-.003907.226563 0 2.773437 2.230469 5.003906 5 5.003906 2.773438 0 5.003907-2.230469 5.003907-5.003906 0-.074219 0-.152344-.003907-.226563-.121093 2.664063-2.304687 4.777344-5 4.777344-2.695312 0-4.878906-2.113281-4.996093-4.777344zm0 0" fill-opacity=".235294"/><path d="m253.975747-84.012509c64.35749 0 116.443425 52.176836 116.443425 116.443426s-52.085935 116.443426-116.443425 116.443426c-64.266591 0-116.352526-52.176836-116.352526-116.443426s52.085935-116.443426 116.352526-116.443426zm0 0" fill="none" stroke="#212121" stroke-linecap="round" stroke-width="3" transform="matrix(.0429729 0 0 .0429729 0 9.239163)"/><path d="m10.914062 5.628906c2.765626 0 5.003907 2.242188 5.003907 5.003906 0 2.761719-2.238281 5.003907-5.003907 5.003907-2.761718 0-5-2.242188-5-5.003907 0-2.761718 2.238282-5.003906 5-5.003906zm0 0" fill="url(#j)"/><path d="m10.914062 3.355469c-4.03125 0-7.277343 3.246093-7.277343 7.277343 0 .039063.003906.074219.003906.113282.058594-3.980469 3.28125-7.164063 7.273437-7.164063 3.996094 0 7.214844 3.183594 7.277344 7.164063 0-.039063 0-.074219 0-.113282 0-4.03125-3.246094-7.277343-7.277344-7.277343zm0 0" fill="#fff" fill-opacity=".992157"/><path d="m3.640625 10.8125c0 .046875-.003906.09375-.003906.140625 0 4.03125 3.246093 7.277344 7.277343 7.277344s7.277344-3.246094 7.277344-7.277344c0-.046875 0-.09375 0-.140625-.078125 3.964844-3.292968 7.132812-7.277344 7.132812-3.980468 0-7.199218-3.167968-7.273437-7.132812zm0 0" fill-opacity=".235294"/><path d="m253.975747-136.916548c93.536522 0 169.347464 75.810943 169.347464 169.347465s-75.810942 169.347464-169.347464 169.347464c-93.536523 0-169.347465-75.810942-169.347465-169.347464s75.810942-169.347465 169.347465-169.347465zm0 0" fill="none" stroke="#212121" stroke-linecap="round" stroke-width="3" transform="matrix(.0429729 0 0 .0429729 0 9.239163)"/></svg>

<?xml version="1.0" encoding="UTF-8"?>
<svg xmlns="http://www.w3.org/2000/svg" xmlns:xlink="http://www.w3.org/1999/xlink" width="22pt" height="22pt" viewBox="0 0 22 22" version="1.1">
<defs>
<radialGradient id="radial0" gradientUnits="userSpaceOnUse" cx="450.90894" cy="189.57936" fx="450.90894" fy="189.57936" r="21.166656" gradientTransform="matrix(0.000000119742,-0.0537161,-0.0966889,-0.0000000698078,30.609667,43.721791)">
<stop offset="0" style="stop-color:rgb(0%,0%,0%);stop-opacity:0.313725;"/>
<stop offset="0.222222" style="stop-color:rgb(0%,0%,0%);stop-opacity:0.27451;"/>
<stop offset="1" style="stop-color:rgb(0%,0%,0%);stop-opacity:0;"/>
</radialGradient>
<radialGradient id="radial1" gradientUnits="userSpaceOnUse" cx="450.90894" cy="189.57936" fx="450.90894" fy="189.57936" r="21.166656" gradientTransform="matrix(-0.000000119742,0.0537161,0.0966889,0.0000000698078,-8.779458,-5.175143)">
<stop offset="0" style="stop-color:rgb(0%,0%,0%);stop-opacity:0.313725;"/>
<stop offset="0.222222" style="stop-color:rgb(0%,0%,0%);stop-opacity:0.27451;"/>
<stop offset="1" style="stop-color:rgb(0%,0%,0%);stop-opacity:0;"/>
</radialGradient>
<radialGradient id="radial2" gradientUnits="userSpaceOnUse" cx="450.90894" cy="189.57936" fx="450.90894" fy="189.57936" r="21.166656" gradientTransform="matrix(-0.000000119742,-0.0537161,0.0966889,-0.0000000698078,-8.779458,43.721791)">
<stop offset="0" style="stop-color:rgb(0%,0%,0%);stop-opacity:0.313725;"/>
<stop offset="0.222222" style="stop-color:rgb(0%,0%,0%);stop-opacity:0.27451;"/>
<stop offset="1" style="stop-color:rgb(0%,0%,0%);stop-opacity:0;"/>
</radialGradient>
<radialGradient id="radial3" gradientUnits="userSpaceOnUse" cx="450.90894" cy="189.57936" fx="450.90894" fy="189.57936" r="21.166656" gradientTransform="matrix(0.000000119742,0.0537161,-0.0966889,0.0000000698078,30.609666,-5.175144)">
<stop offset="0" style="stop-color:rgb(0%,0%,0%);stop-opacity:0.313725;"/>
<stop offset="0.222222" style="stop-color:rgb(0%,0%,0%);stop-opacity:0.27451;"/>
<stop offset="1" style="stop-color:rgb(0%,0%,0%);stop-opacity:0;"/>
</radialGradient>
<linearGradient id="linear0" gradientUnits="userSpaceOnUse" x1="255.32306" y1="233.5" x2="255.32304" y2="254.66666" gradientTransform="matrix(0.00918504,0,0,0.0429729,8.569953,9.239164)">
<stop offset="0" style="stop-color:rgb(0%,0%,0%);stop-opacity:0.27451;"/>
<stop offset="1" style="stop-color:rgb(0%,0%,0%);stop-opacity:0;"/>
</linearGradient>
<linearGradient id="linear1" gradientUnits="userSpaceOnUse" x1="254" y1="-168.66667" x2="254" y2="233.5" >
<stop offset="0" style="stop-color:rgb(50.588235%,78.039216%,51.764706%);stop-opacity:1;"/>
<stop offset="1" style="stop-color:rgb(40%,73.333333%,41.568627%);stop-opacity:1;"/>
</linearGradient>
<linearGradient id="linear2" gradientUnits="userSpaceOnUse" x1="254" y1="-168.66667" x2="254" y2="233.5" gradientTransform="matrix(0.024879,0,0,0.024879,4.595834,9.825705)">
<stop offset="0" style="stop-color:rgb(50.588235%,78.039216%,51.764706%);stop-opacity:1;"/>
<stop offset="1" style="stop-color:rgb(40%,73.333333%,41.568627%);stop-opacity:1;"/>
</linearGradient>
<radialGradient id="radial4" gradientUnits="userSpaceOnUse" cx="254" cy="32.416656" fx="254" fy="32.416656" r="116.41666" gradientTransform="matrix(0.0429729,0,0,0.0429729,0,9.239163)">
<stop offset="0" style="stop-color:rgb(100%,100%,100%);stop-opacity:0.196078;"/>
<stop offset="1" style="stop-color:rgb(79.607843%,79.607843%,79.607843%);stop-opacity:0;"/>
</radialGradient>
</defs>
<g id="surface1">
<path style=" stroke:none;fill-rule:nonzero;fill:url(#radial0);" d="M 12.507812 19.273438 L 14.324219 19.273438 L 14.324219 18.363281 L 12.507812 18.363281 Z M 12.507812 19.273438 "/>
<path style=" stroke:none;fill-rule:nonzero;fill:url(#radial1);" d="M 9.324219 19.273438 L 7.503906 19.273438 L 7.503906 20.183594 L 9.324219 20.183594 Z M 9.324219 19.273438 "/>
<path style=" stroke:none;fill-rule:nonzero;fill:url(#radial2);" d="M 9.324219 19.273438 L 7.503906 19.273438 L 7.503906 18.363281 L 9.324219 18.363281 Z M 9.324219 19.273438 "/>
<path style=" stroke:none;fill-rule:nonzero;fill:url(#radial3);" d="M 12.507812 19.273438 L 14.324219 19.273438 L 14.324219 20.183594 L 12.507812 20.183594 Z M 12.507812 19.273438 "/>
<path style=" stroke:none;fill-rule:nonzero;fill:url(#linear0);" d="M 9.324219 19.046875 L 12.507812 19.046875 L 12.507812 20.183594 L 9.324219 20.183594 Z M 9.324219 19.046875 "/>
<path style="fill-rule:nonzero;fill:url(#linear1);stroke-width:3;stroke-linecap:round;stroke-linejoin:miter;stroke:rgb(20%,20%,20%);stroke-opacity:1;stroke-miterlimit:4;" d="M 253.975747 -168.640791 C 365.056048 -168.640791 455.047454 -78.649384 455.047454 32.430917 C 455.047454 143.511218 365.056048 233.502625 253.975747 233.502625 C 142.986345 233.502625 52.904039 143.511218 52.904039 32.430917 C 52.904039 -78.649384 142.986345 -168.640791 253.975747 -168.640791 Z M 253.975747 -168.640791 " transform="matrix(0.0429729,0,0,0.0429729,0,9.239163)"/>
<path style=" stroke:none;fill-rule:nonzero;fill:rgb(0%,0%,0%);fill-opacity:0.196078;" d="M 10.914062 19.273438 C 6.128906 19.273438 2.273438 15.417969 2.273438 10.632812 C 2.273438 10.605469 2.273438 10.574219 2.273438 10.546875 C 2.320312 15.296875 6.15625 19.105469 10.914062 19.105469 C 15.675781 19.105469 19.511719 15.296875 19.554688 10.546875 C 19.554688 10.574219 19.554688 10.605469 19.554688 10.632812 C 19.554688 15.417969 15.703125 19.273438 10.914062 19.273438 Z M 10.914062 19.273438 "/>
<path style=" stroke:none;fill-rule:nonzero;fill:rgb(100%,100%,100%);fill-opacity:0.392157;" d="M 10.914062 1.992188 C 6.128906 1.992188 2.273438 5.84375 2.273438 10.632812 C 2.273438 10.660156 2.273438 10.6875 2.273438 10.71875 C 2.320312 5.96875 6.15625 2.160156 10.914062 2.160156 C 15.675781 2.160156 19.511719 5.96875 19.554688 10.71875 C 19.554688 10.6875 19.554688 10.660156 19.554688 10.632812 C 19.554688 5.84375 15.703125 1.992188 10.914062 1.992188 Z M 10.914062 1.992188 "/>
<path style=" stroke:none;fill-rule:nonzero;fill:rgb(12.941176%,12.941176%,12.941176%);fill-opacity:1;" d="M 10.914062 1.925781 C 6.09375 1.925781 2.210938 5.808594 2.210938 10.632812 C 2.210938 15.453125 6.09375 19.335938 10.914062 19.335938 C 15.738281 19.335938 19.621094 15.453125 19.621094 10.632812 C 19.621094 5.808594 15.738281 1.925781 10.914062 1.925781 Z M 10.914062 2.054688 C 15.667969 2.054688 19.492188 5.878906 19.492188 10.632812 C 19.492188 15.382812 15.667969 19.207031 10.914062 19.207031 C 6.164062 19.207031 2.339844 15.382812 2.339844 10.632812 C 2.339844 5.878906 6.164062 2.054688 10.914062 2.054688 Z M 10.914062 2.054688 "/>
<path style=" stroke:none;fill-rule:nonzero;fill:rgb(87.843137%,87.843137%,87.843137%);fill-opacity:1;" d="M 10.914062 3.355469 C 14.933594 3.355469 18.191406 6.613281 18.191406 10.632812 C 18.191406 14.652344 14.933594 17.910156 10.914062 17.910156 C 6.894531 17.910156 3.636719 14.652344 3.636719 10.632812 C 3.636719 6.613281 6.894531 3.355469 10.914062 3.355469 Z M 10.914062 3.355469 "/>
<path style=" stroke:none;fill-rule:nonzero;fill:url(#linear2);" d="M 10.914062 5.628906 C 13.679688 5.628906 15.917969 7.871094 15.917969 10.632812 C 15.917969 13.394531 13.679688 15.636719 10.914062 15.636719 C 8.152344 15.636719 5.914062 13.394531 5.914062 10.632812 C 5.914062 7.871094 8.152344 5.628906 10.914062 5.628906 Z M 10.914062 5.628906 "/>
<path style=" stroke:none;fill-rule:nonzero;fill:rgb(100%,100%,100%);fill-opacity:0.392157;" d="M 10.914062 5.6875 C 8.457031 5.6875 6.421875 7.445312 5.996094 9.777344 C 6.480469 7.519531 8.480469 5.835938 10.886719 5.835938 C 13.65625 5.835938 15.886719 8.066406 15.886719 10.839844 C 15.886719 11.152344 15.859375 11.457031 15.804688 11.753906 C 15.878906 11.410156 15.917969 11.054688 15.917969 10.6875 C 15.917969 7.917969 13.6875 5.6875 10.914062 5.6875 Z M 10.914062 5.6875 "/>
<path style=" stroke:none;fill-rule:nonzero;fill:rgb(0%,0%,0%);fill-opacity:0.235294;" d="M 5.917969 10.859375 C 5.914062 10.933594 5.914062 11.011719 5.914062 11.085938 C 5.914062 13.859375 8.144531 16.089844 10.914062 16.089844 C 13.6875 16.089844 15.917969 13.859375 15.917969 11.085938 C 15.917969 11.011719 15.917969 10.933594 15.914062 10.859375 C 15.792969 13.523438 13.609375 15.636719 10.914062 15.636719 C 8.21875 15.636719 6.035156 13.523438 5.917969 10.859375 Z M 5.917969 10.859375 "/>
<path style="fill:none;stroke-width:3;stroke-linecap:round;stroke-linejoin:miter;stroke:rgb(12.941176%,12.941176%,12.941176%);stroke-opacity:1;stroke-miterlimit:4;" d="M 253.975747 -84.012509 C 318.333237 -84.012509 370.419172 -31.835673 370.419172 32.430917 C 370.419172 96.697507 318.333237 148.874343 253.975747 148.874343 C 189.709156 148.874343 137.623221 96.697507 137.623221 32.430917 C 137.623221 -31.835673 189.709156 -84.012509 253.975747 -84.012509 Z M 253.975747 -84.012509 " transform="matrix(0.0429729,0,0,0.0429729,0,9.239163)"/>
<path style=" stroke:none;fill-rule:nonzero;fill:url(#radial4);" d="M 10.914062 5.628906 C 13.679688 5.628906 15.917969 7.871094 15.917969 10.632812 C 15.917969 13.394531 13.679688 15.636719 10.914062 15.636719 C 8.152344 15.636719 5.914062 13.394531 5.914062 10.632812 C 5.914062 7.871094 8.152344 5.628906 10.914062 5.628906 Z M 10.914062 5.628906 "/>
<path style=" stroke:none;fill-rule:nonzero;fill:rgb(100%,100%,100%);fill-opacity:0.992157;" d="M 10.914062 3.355469 C 6.882812 3.355469 3.636719 6.601562 3.636719 10.632812 C 3.636719 10.671875 3.640625 10.707031 3.640625 10.746094 C 3.699219 6.765625 6.921875 3.582031 10.914062 3.582031 C 14.910156 3.582031 18.128906 6.765625 18.191406 10.746094 C 18.191406 10.707031 18.191406 10.671875 18.191406 10.632812 C 18.191406 6.601562 14.945312 3.355469 10.914062 3.355469 Z M 10.914062 3.355469 "/>
<path style=" stroke:none;fill-rule:nonzero;fill:rgb(0%,0%,0%);fill-opacity:0.235294;" d="M 3.640625 10.8125 C 3.640625 10.859375 3.636719 10.90625 3.636719 10.953125 C 3.636719 14.984375 6.882812 18.230469 10.914062 18.230469 C 14.945312 18.230469 18.191406 14.984375 18.191406 10.953125 C 18.191406 10.90625 18.191406 10.859375 18.191406 10.8125 C 18.113281 14.777344 14.898438 17.945312 10.914062 17.945312 C 6.933594 17.945312 3.714844 14.777344 3.640625 10.8125 Z M 3.640625 10.8125 "/>
<path style="fill:none;stroke-width:3;stroke-linecap:round;stroke-linejoin:miter;stroke:rgb(12.941176%,12.941176%,12.941176%);stroke-opacity:1;stroke-miterlimit:4;" d="M 253.975747 -136.916548 C 347.512269 -136.916548 423.323211 -61.105605 423.323211 32.430917 C 423.323211 125.967439 347.512269 201.778381 253.975747 201.778381 C 160.439224 201.778381 84.628282 125.967439 84.628282 32.430917 C 84.628282 -61.105605 160.439224 -136.916548 253.975747 -136.916548 Z M 253.975747 -136.916548 " transform="matrix(0.0429729,0,0,0.0429729,0,9.239163)"/>
</g>
</svg>
